images/brands/the-economist.svg

<svg fill="none" height="180" viewBox="0 0 833 180" width="833" xmlns="http://www.w3.org/2000/svg"><path clip-rule="evenodd" d="m633.31 126.593c-5.571-.195-9.796-.39-12.583-.39-2.691 0-6.629.193-11.914.39l.193-2.347c5.092-.781 5.668-1.759 5.668-10.462v-14.8623c0-12.1229-2.114-16.4241-8.069-16.4241-3.556 0-7.208 2.3458-8.742 5.6692-.483 1.1729-.962 2.3477-1.25 3.7157-.097.4889-.193.8792-.193 1.0763v20.8252c0 8.703.579 9.681 5.669 10.462l.193 2.347c-5.093-.195-8.935-.39-11.53-.39-2.498 0-6.245.193-11.239.39l.193-2.347c5.091-.781 5.667-1.759 5.667-10.462v-14.8623c0-12.1229-2.114-16.4241-8.069-16.4241-3.652 0-6.917 2.1487-8.743 5.6692-.767 1.5651-1.44 3.8143-1.44 4.792v20.8252c0 8.703.576 9.681 5.667 10.462l.194 2.347c-5.285-.195-9.32-.39-12.009-.39-2.787 0-6.918.193-12.49.39l.193-2.347c6.434 0 7.397-1.27 7.397-10.462v-22.684c0-9.0932-.961-10.3627-7.397-10.4612l-.193-2.2491c8.55-.4889 10.472-.7826 17.772-2.3458l.482 8.7995c5.476-6.16 9.701-8.5077 15.371-8.5077 6.531 0 10.376 2.738 13.257 9.2883 5.86-6.844 10.183-9.2883 16.043-9.2883 9.126 0 14.314 6.2585 14.314 17.2085v20.2398c0 .783-.096 1.566-.096 2.348 0 6.257 1.729 8.116 7.493 8.116l.193 2.345m19.637-60.2953c-3.65 0-6.434-2.8346-6.434-6.6489 0-3.7157 2.879-6.6488 6.434-6.6488 3.556 0 6.437 3.0317 6.437 6.6488 0 3.7157-2.787 6.6489-6.435 6.6489zm13.642 60.2303c-5.955-.196-10.279-.391-13.255-.391-2.883 0-7.207.194-13.068.391l.193-2.346c6.437 0 7.302-1.272 7.397-10.463l.097-6.16v-10.2662l-.097-6.2585c-.097-9.0912-.96-10.3627-7.397-10.4612l-.193-2.2491c8.84-.5855 10.857-.8792 18.639-2.3458v31.5808l.096 6.16c.095 9.191.864 10.463 7.397 10.463l.193 2.346zm20.171 1.47c-3.556 0-6.918-.781-13.066-2.835l-.385-9.972 4.901-.197c2.208 7.53 3.651 8.997 8.741 8.997 4.419 0 7.302-2.348 7.302-5.867 0-3.323-2.017-5.866-8.069-10.071-3.074-2.152-5.188-3.619-6.342-4.498-2.498-1.957-4.322-4.3029-5.282-6.9423-.578-1.4666-.866-3.2269-.866-5.2809 0-8.896 5.957-14.6657 14.986-14.6657 3.362 0 5.285.2937 13.066 2.1506l.193 9.8757-4.9.1951c-1.153-6.5503-3.169-8.7994-7.686-8.7994-4.323 0-7.397 2.5428-7.397 6.16 0 3.422 1.536 5.476 6.531 8.7028 4.518 3.0298 8.168 5.6711 10.473 7.9181 2.786 2.543 4.228 5.965 4.228 9.779 0 8.701-7.206 15.35-16.428 15.35zm54.331-3.093c-3.266 1.855-7.784 2.933-12.392 2.933-4.228 0-8.26-2.445-9.992-6.064-1.437-3.031-1.92-6.061-1.92-12.71v-25.0302h-6.151v-4.4983c7.594-.5855 10.568-3.9109 12.776-14.0803h4.329v13.2011h12.101l-1.346 5.3775h-10.757v24.0522c0 12.027 1.536 14.861 8.071 14.861 1.536 0 2.975-.193 5.281-.879zm-590.683-53.0135-3.459.1952c-.29-9.2883-2.21-10.5597-16.043-10.5597h-2.978v53.484c0 7.333 1.824 9.289 8.935 9.484l.193 2.543c-6.726-.097-11.818-.097-15.18-.097-3.458 0-8.743 0-15.661.097l.194-2.543c7.11-.193 8.934-2.151 8.934-9.484v-53.484h-3.458c-14.2178 0-16.1404 1.2714-16.3317 10.5597l-3.5553-.1932.3864-15.1565c13.0616.0966 22.7656.1951 29.2986.1951 6.245 0 15.756-.0966 28.34-.1951zm61.14 54.9045c-5.573-.197-9.799-.39-12.585-.39-2.69 0-6.627.193-11.914.39l.193-2.347c5.092-.783 5.669-1.759 5.669-10.462v-14.8644c0-12.318-2.114-16.426-8.455-16.426-3.556 0-7.206 2.2492-8.742 5.6712-.575 1.1728-.96 2.4443-1.344 3.7157-.097.4888-.097.8791-.097 1.0743v20.8272c0 8.703.576 9.681 5.669 10.462l.191 2.347c-5.379-.197-9.319-.39-12.008-.39-2.787 0-7.013.193-12.489.39l.194-2.347c6.434 0 7.396-1.272 7.396-10.462v-44.6807c0-9.1917-.96-10.4631-7.398-10.4631l-.192-2.3458c8.742-.4908 10.761-.7825 18.637-2.2491v30.3072c5.091-5.7677 9.416-8.0188 15.083-8.0188 9.416 0 14.602 6.0653 14.602 17.2105v20.2398c0 9.19.962 10.462 7.397 10.462zm26.22-46.7079c-5.762 0-8.741 4.8886-9.701 15.5468 8.838-.1951 11.527-.3903 20.462-1.368-1.152-9.4854-4.707-14.1788-10.761-14.1788zm-9.414 19.2625c.387 14.8614 5.67 23.2704 14.508 23.2704 5.282 0 9.702-2.445 14.41-8.019l1.44 2.74c-5.955 7.528-11.816 10.656-19.502 10.656-13.352 0-22.383-9.972-22.383-24.737 0-15.7415 9.319-26.5949 22.767-26.5949 7.399 0 12.585 2.738 16.14 8.7028 2.402 4.106 3.073 6.9406 3.169 13.9817zm99.366 10.7354-2.209 16.428-7.398.097-23.535-.195-15.949.096.29-2.541c7.01-.197 8.836-2.152 8.836-9.485v-46.2483c0-7.3329-1.826-9.2883-8.836-9.4835l-.29-2.5428 14.892.1951 23.438-.2917 6.151.0966.384 14.3739-3.845.2937c-.67-8.8999-2.303-9.8757-16.138-9.8757h-2.112l-.962.0967v26.5953c1.826 0 3.265.0986 4.131.0986 1.536.0966 2.979.1932 4.419.1932 7.686 0 9.416-1.6617 9.51-9.0912h3.266c-.286 5.9649-.286 8.9946-.286 11.9278 0 2.3476 0 5.6711.097 10.0723h-3.077c-.384-7.0407-1.92-8.4087-9.317-8.5072l-5.188-.0966-3.652.1932v20.6326c0 8.309.481 8.701 8.55 8.701 10.858 0 14.028-2.443 14.989-11.928zm46.316 9.895c-5.476 5.77-9.992 8.019-16.331 8.019-12.684 0-20.946-10.073-20.946-25.423.002-15.84 8.743-25.9109 22.578-25.9109 3.652 0 7.397.684 13.161 2.2491l.193 11.7326-4.324.2937c-1.728-8.7994-3.459-10.8534-9.03-10.8534-7.205 0-10.952 6.5503-10.952 19.164 0 14.8629 4.514 23.1729 12.682 23.1729 4.225 0 7.781-1.858 11.527-5.964zm29.681-39.6011c-7.014 0-10.567 6.1638-10.567 18.3833 0 1.4688.096 2.9328.193 4.3998 1.057 13.982 5.476 21.512 12.872 21.512 6.918 0 11.049-7.333 11.049-19.653 0-14.4727-5.669-24.6402-13.545-24.6402zm1.154 47.6181c-13.739 0-22.961-9.385-23.44-23.759v-1.466c0-16.5249 8.741-26.1069 23.728-26.1069 13.931 0 23.727 10.5597 23.727 25.7159 0 15.35-9.506 25.616-24.015 25.616zm85.19-1.405c-5.57-.195-9.798-.39-12.584-.39-2.69 0-6.725.193-12.009.39l.193-2.347c5.091-.781 5.571-1.759 5.667-10.462l.097-6.159v-8.7033c0-12.3181-2.211-16.4241-8.454-16.4241-3.748 0-6.917 2.0521-8.84 5.6692-.767 1.4685-1.439 3.8143-1.439 4.792v20.8252c0 8.703.576 9.681 5.667 10.462l.29 2.347c-5.382-.195-9.416-.39-12.106-.39-2.786 0-6.917.193-12.49.39l.194-2.347c6.436 0 7.396-1.27 7.396-10.462v-22.684c0-9.0932-.96-10.3627-7.396-10.4612l-.194-2.2491c8.55-.4889 10.473-.7826 17.773-2.3458l.483 8.7995c5.474-6.2586 9.7-8.5077 15.562-8.5077 9.318 0 14.602 6.16 14.602 17.2085v20.2398c-.096.783-.096 1.566-.096 2.348 0 6.257 1.632 8.116 7.493 8.116zm28.083-46.2131c-7.014 0-10.567 6.1638-10.567 18.3833 0 1.4688.097 2.9328.193 4.3998 1.055 13.982 5.474 21.512 12.873 21.512 6.917 0 11.046-7.333 11.046-19.653 0-14.4727-5.667-24.6421-13.545-24.6421zm1.154 47.6181c-13.738 0-22.961-9.385-23.442-23.759v-1.466c0-16.5249 8.743-26.1069 23.73-26.1069 13.929 0 23.728 10.5597 23.728 25.7159 0 15.35-9.509 25.616-24.016 25.616z" fill="#e3120b" fill-rule="evenodd"/></svg>

<svg width="833" height="180" viewBox="0 0 833 180" fill="none" xmlns="http://www.w3.org/2000/svg">
<path fill-rule="evenodd" clip-rule="evenodd" d="M633.31 126.593C627.739 126.398 623.514 126.203 620.727 126.203C618.036 126.203 614.098 126.396 608.813 126.593L609.006 124.246C614.098 123.465 614.674 122.487 614.674 113.784V98.9217C614.674 86.7988 612.56 82.4976 606.605 82.4976C603.049 82.4976 599.397 84.8434 597.863 88.1668C597.38 89.3397 596.901 90.5145 596.613 91.8825C596.516 92.3714 596.42 92.7617 596.42 92.9588V113.784C596.42 122.487 596.999 123.465 602.089 124.246L602.282 126.593C597.189 126.398 593.347 126.203 590.752 126.203C588.254 126.203 584.507 126.396 579.513 126.593L579.706 124.246C584.797 123.465 585.373 122.487 585.373 113.784V98.9217C585.373 86.7988 583.259 82.4976 577.304 82.4976C573.652 82.4976 570.387 84.6463 568.561 88.1668C567.794 89.7319 567.121 91.9811 567.121 92.9588V113.784C567.121 122.487 567.697 123.465 572.788 124.246L572.982 126.593C567.697 126.398 563.662 126.203 560.973 126.203C558.186 126.203 554.055 126.396 548.483 126.593L548.676 124.246C555.11 124.246 556.073 122.976 556.073 113.784V91.1C556.073 82.0068 555.112 80.7373 548.676 80.6388L548.483 78.3897C557.033 77.9008 558.955 77.6071 566.255 76.0439L566.737 84.8434C572.213 78.6834 576.438 76.3357 582.108 76.3357C588.639 76.3357 592.484 79.0737 595.365 85.624C601.225 78.78 605.548 76.3357 611.408 76.3357C620.534 76.3357 625.722 82.5942 625.722 93.5442V113.784C625.722 114.567 625.626 115.35 625.626 116.132C625.626 122.389 627.355 124.248 633.119 124.248L633.312 126.593M652.949 66.2977C649.299 66.2977 646.515 63.4631 646.515 59.6488C646.515 55.9331 649.394 53 652.949 53C656.505 53 659.386 56.0317 659.386 59.6488C659.386 63.3645 656.599 66.2977 652.951 66.2977H652.949ZM666.591 126.528C660.636 126.332 656.312 126.137 653.336 126.137C650.453 126.137 646.129 126.331 640.268 126.528L640.461 124.182C646.898 124.182 647.763 122.91 647.858 113.719L647.955 107.559V97.2928L647.858 91.0343C647.761 81.9431 646.898 80.6716 640.461 80.5731L640.268 78.324C649.108 77.7385 651.125 77.4448 658.907 75.9782V107.559L659.003 113.719C659.098 122.91 659.867 124.182 666.4 124.182L666.593 126.528H666.591ZM686.762 127.998C683.206 127.998 679.844 127.217 673.696 125.163L673.311 115.191L678.212 114.994C680.42 122.524 681.863 123.991 686.953 123.991C691.372 123.991 694.255 121.643 694.255 118.124C694.255 114.801 692.238 112.258 686.186 108.053C683.112 105.901 680.998 104.434 679.844 103.555C677.346 101.598 675.522 99.2521 674.562 96.6127C673.984 95.1461 673.696 93.3858 673.696 91.3318C673.696 82.4358 679.653 76.6661 688.682 76.6661C692.044 76.6661 693.967 76.9598 701.748 78.8167L701.941 88.6924L697.041 88.8875C695.888 82.3372 693.872 80.0881 689.355 80.0881C685.032 80.0881 681.958 82.6309 681.958 86.2481C681.958 89.6701 683.494 91.7241 688.489 94.9509C693.007 97.9807 696.657 100.622 698.962 102.869C701.748 105.412 703.19 108.834 703.19 112.648C703.19 121.349 695.984 127.998 686.762 127.998ZM741.093 124.905C737.827 126.76 733.309 127.838 728.701 127.838C724.473 127.838 720.441 125.393 718.709 121.774C717.272 118.743 716.789 115.713 716.789 109.064V84.0338H710.638V79.5355C718.232 78.95 721.206 75.6246 723.414 65.4552H727.743V78.6563H739.844L738.498 84.0338H727.741V108.086C727.741 120.113 729.277 122.947 735.812 122.947C737.348 122.947 738.787 122.754 741.093 122.068V124.905ZM150.41 71.8915L146.951 72.0867C146.661 62.7984 144.741 61.527 130.908 61.527H127.93V115.011C127.93 122.344 129.754 124.3 136.865 124.495L137.058 127.038C130.332 126.941 125.24 126.941 121.878 126.941C118.42 126.941 113.135 126.941 106.217 127.038L106.411 124.495C113.521 124.302 115.345 122.344 115.345 115.011V61.527H111.887C97.6692 61.527 95.7466 62.7984 95.5553 72.0867L92 71.8935L92.3864 56.737C105.448 56.8336 115.152 56.9321 121.685 56.9321C127.93 56.9321 137.441 56.8355 150.025 56.737L150.41 71.8915ZM211.55 126.796C205.977 126.599 201.751 126.406 198.965 126.406C196.275 126.406 192.338 126.599 187.051 126.796L187.244 124.449C192.336 123.666 192.913 122.69 192.913 113.987V99.1226C192.913 86.8046 190.799 82.6966 184.458 82.6966C180.902 82.6966 177.252 84.9458 175.716 88.3678C175.141 89.5406 174.756 90.8121 174.372 92.0835C174.275 92.5723 174.275 92.9626 174.275 93.1578V113.985C174.275 122.688 174.851 123.666 179.944 124.447L180.135 126.794C174.756 126.597 170.816 126.404 168.127 126.404C165.34 126.404 161.114 126.597 155.638 126.794L155.832 124.447C162.266 124.447 163.228 123.175 163.228 113.985V69.3043C163.228 60.1126 162.268 58.8412 155.83 58.8412L155.638 56.4954C164.38 56.0046 166.399 55.7129 174.275 54.2463V84.5535C179.366 78.7858 183.691 76.5347 189.358 76.5347C198.774 76.5347 203.96 82.6 203.96 93.7452V113.985C203.96 123.175 204.922 124.447 211.357 124.447L211.55 126.796ZM237.77 80.0881C232.008 80.0881 229.029 84.9767 228.069 95.6349C236.907 95.4398 239.596 95.2446 248.531 94.2669C247.379 84.7815 243.824 80.0881 237.77 80.0881ZM228.356 99.3506C228.743 114.212 234.026 122.621 242.864 122.621C248.146 122.621 252.566 120.176 257.274 114.602L258.714 117.342C252.759 124.87 246.898 127.998 239.212 127.998C225.86 127.998 216.829 118.026 216.829 103.261C216.829 87.5195 226.148 76.6661 239.596 76.6661C246.995 76.6661 252.181 79.4041 255.736 85.3689C258.138 89.4749 258.809 92.3095 258.905 99.3506H228.356ZM327.722 110.086L325.513 126.514L318.115 126.611L294.58 126.416L278.631 126.512L278.921 123.971C285.931 123.774 287.757 121.819 287.757 114.486V68.2377C287.757 60.9048 285.931 58.9494 278.921 58.7542L278.631 56.2114L293.523 56.4065L316.961 56.1148L323.112 56.2114L323.496 70.5853L319.651 70.879C318.981 61.9791 317.348 61.0033 303.513 61.0033H301.401L300.439 61.1V87.6953C302.265 87.6953 303.704 87.7939 304.57 87.7939C306.106 87.8905 307.549 87.9871 308.989 87.9871C316.675 87.9871 318.405 86.3254 318.499 78.8959H321.765C321.479 84.8608 321.479 87.8905 321.479 90.8237C321.479 93.1713 321.479 96.4948 321.576 100.896H318.499C318.115 93.8553 316.579 92.4873 309.182 92.3888L303.994 92.2922L300.342 92.4854V113.118C300.342 121.427 300.823 121.819 308.892 121.819C319.75 121.819 322.92 119.376 323.881 109.891L327.722 110.086ZM374.038 119.981C368.562 125.751 364.046 128 357.707 128C345.023 128 336.761 117.927 336.761 102.577C336.763 86.737 345.504 76.6661 359.339 76.6661C362.991 76.6661 366.736 77.3501 372.5 78.9152L372.693 90.6478L368.369 90.9415C366.641 82.1421 364.91 80.0881 359.339 80.0881C352.134 80.0881 348.387 86.6384 348.387 99.2521C348.387 114.115 352.901 122.425 361.069 122.425C365.294 122.425 368.85 120.567 372.596 116.461L374.038 119.981ZM403.719 80.3799C396.705 80.3799 393.152 86.5437 393.152 98.7632C393.152 100.232 393.248 101.696 393.345 103.163C394.402 117.145 398.821 124.675 406.217 124.675C413.135 124.675 417.266 117.342 417.266 105.022C417.266 90.5493 411.597 80.3818 403.721 80.3818L403.719 80.3799ZM404.873 127.998C391.134 127.998 381.912 118.613 381.433 104.239V102.773C381.433 86.2481 390.174 76.6661 405.161 76.6661C419.092 76.6661 428.888 87.2258 428.888 102.382C428.888 117.732 419.382 127.998 404.873 127.998ZM490.063 126.593C484.493 126.398 480.265 126.203 477.479 126.203C474.789 126.203 470.754 126.396 465.47 126.593L465.663 124.246C470.754 123.465 471.234 122.487 471.33 113.784L471.427 107.625V98.9217C471.427 86.6036 469.216 82.4976 462.973 82.4976C459.225 82.4976 456.056 84.5497 454.133 88.1668C453.366 89.6353 452.694 91.9811 452.694 92.9588V113.784C452.694 122.487 453.27 123.465 458.361 124.246L458.651 126.593C453.269 126.398 449.235 126.203 446.545 126.203C443.759 126.203 439.628 126.396 434.055 126.593L434.249 124.246C440.685 124.246 441.645 122.976 441.645 113.784V91.1C441.645 82.0068 440.685 80.7373 434.249 80.6388L434.055 78.3897C442.605 77.9008 444.528 77.6071 451.828 76.0439L452.311 84.8434C457.785 78.5848 462.011 76.3357 467.873 76.3357C477.191 76.3357 482.475 82.4957 482.475 93.5442V113.784C482.379 114.567 482.379 115.35 482.379 116.132C482.379 122.389 484.011 124.248 489.872 124.248L490.063 126.593ZM518.146 80.3799C511.132 80.3799 507.579 86.5437 507.579 98.7632C507.579 100.232 507.676 101.696 507.772 103.163C508.827 117.145 513.246 124.675 520.645 124.675C527.562 124.675 531.691 117.342 531.691 105.022C531.691 90.5493 526.024 80.3799 518.146 80.3799ZM519.3 127.998C505.562 127.998 496.339 118.613 495.858 104.239V102.773C495.858 86.2481 504.601 76.6661 519.588 76.6661C533.517 76.6661 543.316 87.2258 543.316 102.382C543.316 117.732 533.807 127.998 519.3 127.998Z" fill="#E3120B"/>
</svg>
